public/logos/JQ.svg

<?xml version="1.0" encoding="UTF-8"?>
<svg xmlns="http://www.w3.org/2000/svg" xmlns:xlink="http://www.w3.org/1999/xlink" width="176pt" height="42.12pt" viewBox="0 0 176 42.12" version="1.1">
<defs>
<clipPath id="clip1">
  <path d="M 129 0 L 176 0 L 176 42.121094 L 129 42.121094 Z M 129 0 "/>
</clipPath>
</defs>
<g id="surface1">
<path style=" stroke:none;fill-rule:nonzero;fill:rgb(12.866211%,11.170959%,11.180115%);fill-opacity:1;" d="M 60.078125 20.722656 L 55.507812 20.722656 L 55.507812 30.554688 C 55.507812 32.34375 56.554688 32.730469 58.167969 32.730469 C 58.773438 32.730469 59.425781 32.648438 60.078125 32.648438 L 60.078125 38.089844 C 58.730469 38.132812 57.378906 38.304688 56.03125 38.304688 C 49.714844 38.304688 48.105469 36.480469 48.105469 30.339844 L 48.105469 20.722656 L 44.363281 20.722656 L 44.363281 15.753906 L 48.105469 15.753906 L 48.105469 8.65625 L 55.507812 8.65625 L 55.507812 15.753906 L 60.078125 15.753906 L 60.078125 20.722656 "/>
<path style=" stroke:none;fill-rule:nonzero;fill:rgb(12.866211%,11.170959%,11.180115%);fill-opacity:1;" d="M 97.34375 20.722656 L 92.769531 20.722656 L 92.769531 30.554688 C 92.769531 32.34375 93.820312 32.730469 95.425781 32.730469 C 96.035156 32.730469 96.691406 32.648438 97.34375 32.648438 L 97.34375 38.089844 C 95.992188 38.132812 94.640625 38.304688 93.292969 38.304688 C 86.980469 38.304688 85.367188 36.480469 85.367188 30.339844 L 85.367188 20.722656 L 81.625 20.722656 L 81.625 15.753906 L 85.367188 15.753906 L 85.367188 8.65625 L 92.769531 8.65625 L 92.769531 15.753906 L 97.34375 15.753906 L 97.34375 20.722656 "/>
<path style=" stroke:none;fill-rule:nonzero;fill:rgb(12.866211%,11.170959%,11.180115%);fill-opacity:1;" d="M 20.648438 28.6875 C 20.648438 35.296875 17.261719 38.636719 10.324219 38.636719 C 2.519531 38.636719 0 34.140625 0 27.574219 L 0 26.292969 L 7.230469 26.292969 L 7.230469 29.019531 C 7.230469 30.957031 8.300781 32.035156 10.199219 32.035156 C 11.972656 32.035156 12.96875 31.042969 12.96875 28.191406 L 12.96875 8.535156 L 20.648438 8.535156 L 20.648438 28.6875 "/>
<path style=" stroke:none;fill-rule:nonzero;fill:rgb(12.866211%,11.170959%,11.180115%);fill-opacity:1;" d="M 37.898438 24.480469 C 37.765625 21.980469 36 19.90625 33.539062 19.90625 C 30.945312 19.90625 29.222656 21.765625 28.789062 24.480469 Z M 28.789062 28.582031 C 28.917969 31.644531 30.691406 33.675781 33.796875 33.675781 C 35.566406 33.675781 37.296875 32.855469 37.988281 31.214844 L 44.84375 31.214844 C 43.511719 36.398438 38.71875 38.636719 33.710938 38.636719 C 26.417969 38.636719 21.453125 34.238281 21.453125 26.726562 C 21.453125 19.859375 26.933594 14.9375 33.539062 14.9375 C 41.566406 14.9375 45.582031 20.984375 45.234375 28.582031 L 28.789062 28.582031 "/>
<path style=" stroke:none;fill-rule:nonzero;fill:rgb(12.866211%,11.170959%,11.180115%);fill-opacity:1;" d="M 67.296875 30.632812 C 67.296875 31.75 67.765625 32.570312 68.5 33.128906 C 69.1875 33.644531 70.179688 33.902344 71.214844 33.902344 C 72.636719 33.902344 74.65625 33.296875 74.65625 31.539062 C 74.65625 29.8125 72.375 29.46875 71.085938 29.167969 C 66.476562 28.007812 60.707031 27.875 60.707031 21.847656 C 60.707031 16.46875 66.523438 15 70.914062 15 C 75.820312 15 80.945312 16.421875 81.203125 22.238281 L 74.445312 22.238281 C 74.445312 21.289062 74.097656 20.683594 73.496094 20.296875 C 72.894531 19.910156 72.078125 19.738281 71.171875 19.738281 C 69.964844 19.738281 68.03125 19.871094 68.03125 21.417969 C 68.03125 23.527344 72.933594 23.914062 76.292969 24.648438 C 80.816406 25.550781 81.976562 28.824219 81.976562 30.675781 C 81.976562 36.660156 76.292969 38.636719 71.257812 38.636719 C 65.960938 38.636719 60.535156 36.871094 60.320312 30.632812 L 67.296875 30.632812 "/>
<path style=" stroke:none;fill-rule:nonzero;fill:rgb(12.866211%,11.170959%,11.180115%);fill-opacity:1;" d="M 108.128906 34.128906 C 111.609375 34.128906 112.769531 32.15625 112.597656 27.5625 C 111.566406 28.203125 109.675781 28.332031 108.089844 28.761719 C 106.457031 29.148438 105.085938 29.835938 105.085938 31.597656 C 105.085938 33.398438 106.5 34.128906 108.128906 34.128906 Z M 98.683594 22.578125 C 98.816406 19.65625 100.1875 17.765625 102.164062 16.609375 C 104.136719 15.492188 106.714844 15.0625 109.246094 15.0625 C 114.527344 15.0625 119.636719 16.222656 119.636719 22.539062 L 119.636719 32.285156 C 119.636719 34.171875 119.636719 36.234375 120.5 37.996094 L 113.152344 37.996094 C 112.898438 37.308594 112.8125 36.621094 112.726562 35.890625 C 110.835938 37.867188 108.042969 38.636719 105.382812 38.636719 C 101.132812 38.636719 97.78125 36.492188 97.78125 31.898438 C 97.78125 24.636719 105.683594 25.199219 110.753906 24.167969 C 111.992188 23.910156 112.683594 23.480469 112.683594 22.105469 C 112.683594 20.429688 110.667969 19.785156 109.160156 19.785156 C 107.144531 19.785156 105.855469 20.6875 105.511719 22.578125 L 98.683594 22.578125 "/>
<path style=" stroke:none;fill-rule:nonzero;fill:rgb(12.866211%,11.170959%,11.180115%);fill-opacity:1;" d="M 130.886719 16.402344 C 129.769531 17.132812 128.902344 18.203125 128.375 19.59375 L 128.289062 19.59375 L 128.289062 15.675781 L 121.183594 15.675781 L 121.183594 38.023438 L 128.503906 38.023438 L 128.503906 26.957031 C 128.503906 24.160156 130.390625 21.660156 134.011719 21.660156 C 134.851562 21.660156 135.605469 21.789062 136.386719 21.984375 L 130.886719 16.402344 "/>
<g clip-path="url(#clip1)" clip-rule="nonzero">
<path style=" stroke:none;fill-rule:evenodd;fill:rgb(93.299866%,27.532959%,11.476135%);fill-opacity:1;" d="M 157.6875 0.00390625 L 158.476562 12.691406 L 176 12.691406 L 159.21875 23.800781 L 162.917969 42.121094 L 148.648438 29.730469 L 129.441406 39.699219 L 140.894531 24 L 130.035156 12.691406 L 147.613281 12.691406 L 157.6875 0.00390625 "/>
</g>
</g>
</svg>

<svg xmlns="http://www.w3.org/2000/svg" width="176pt" height="56.16" viewBox="0 0 176 42.12"><defs><clipPath id="a"><path d="M129 0h47v42.121h-47Zm0 0"/></clipPath></defs><path d="M60.078 20.723h-4.57v9.832c0 1.789 1.047 2.175 2.66 2.175.605 0 1.258-.082 1.91-.082v5.442c-1.348.043-2.7.215-4.047.215-6.316 0-7.926-1.825-7.926-7.965v-9.617h-3.742v-4.97h3.742V8.657h7.403v7.098h4.57zM97.344 20.723H92.77v9.832c0 1.789 1.05 2.175 2.656 2.175.61 0 1.265-.082 1.918-.082v5.442c-1.352.043-2.703.215-4.051.215-6.313 0-7.926-1.825-7.926-7.965v-9.617h-3.742v-4.97h3.742V8.657h7.403v7.098h4.574zM20.648 28.688c0 6.609-3.386 9.949-10.324 9.949C2.52 38.637 0 34.14 0 27.574v-1.281h7.23v2.727c0 1.937 1.07 3.015 2.97 3.015 1.773 0 2.769-.992 2.769-3.844V8.535h7.68zM37.898 24.48c-.132-2.5-1.898-4.574-4.359-4.574-2.594 0-4.316 1.86-4.75 4.574Zm-9.109 4.102c.129 3.063 1.902 5.094 5.008 5.094 1.77 0 3.5-.82 4.191-2.461h6.856c-1.332 5.183-6.125 7.422-11.133 7.422-7.293 0-12.258-4.399-12.258-11.91 0-6.868 5.48-11.79 12.086-11.79 8.027 0 12.043 6.047 11.695 13.645zM67.297 30.633c0 1.117.469 1.937 1.203 2.496.688.516 1.68.773 2.715.773 1.422 0 3.441-.605 3.441-2.363 0-1.727-2.281-2.07-3.57-2.371-4.61-1.16-10.379-1.293-10.379-7.32 0-5.38 5.816-6.848 10.207-6.848 4.906 0 10.031 1.422 10.29 7.238h-6.759c0-.949-.347-1.554-.949-1.941-.601-.387-1.418-.559-2.324-.559-1.207 0-3.14.133-3.14 1.68 0 2.11 4.902 2.496 8.261 3.23 4.523.903 5.684 4.176 5.684 6.028 0 5.984-5.684 7.96-10.72 7.96-5.296 0-10.722-1.765-10.937-8.003zM108.129 34.129c3.48 0 4.64-1.973 4.469-6.566-1.032.64-2.922.769-4.508 1.199-1.633.386-3.004 1.074-3.004 2.836 0 1.8 1.414 2.53 3.043 2.53m-9.445-11.55c.132-2.923 1.504-4.813 3.48-5.97 1.973-1.117 4.55-1.547 7.082-1.547 5.281 0 10.39 1.16 10.39 7.477v9.746c0 1.887 0 3.95.864 5.711h-7.348c-.254-.687-.34-1.375-.425-2.105-1.891 1.976-4.684 2.746-7.344 2.746-4.25 0-7.602-2.145-7.602-6.739 0-7.261 7.903-6.699 12.973-7.73 1.238-.258 1.93-.688 1.93-2.063 0-1.675-2.016-2.32-3.524-2.32-2.015 0-3.305.902-3.648 2.793zM130.887 16.402c-1.117.73-1.985 1.801-2.512 3.192h-.086v-3.918h-7.105v22.347h7.32V26.957c0-2.797 1.887-5.297 5.508-5.297.84 0 1.593.13 2.375.324z" style="stroke:none;fill-rule:nonzero;fill:#211c1d;fill-opacity:1"/><g clip-path="url(#a)"><path d="m157.688.004.789 12.687H176l-16.781 11.11 3.699 18.32-14.27-12.39-19.207 9.968L140.895 24l-10.86-11.309h17.578z" style="stroke:none;fill-rule:evenodd;fill:#ee461d;fill-opacity:1"/></g></svg>
